svgs/light/magnet.svg

<svg xmlns="http://www.w3.org/2000/svg" viewBox="0 0 448 512"><!--! Font Awesome Pro 6.6.0 by @fontawesome - https://fontawesome.com License - https://fontawesome.com/license (Commercial License) Copyright 2024 Fonticons, Inc. --><path d="M48 64c-8.8 0-16 7.2-16 16l0 48 80 0 0-48c0-8.8-7.2-16-16-16L48 64zM32 256c0 106 86 192 192 192s192-86 192-192l0-96-80 0 0 96c0 61.9-50.1 112-112 112s-112-50.1-112-112l0-96-80 0 0 96zM416 128l0-48c0-8.8-7.2-16-16-16l-48 0c-8.8 0-16 7.2-16 16l0 48 80 0zM0 80C0 53.5 21.5 32 48 32l48 0c26.5 0 48 21.5 48 48l0 176c0 44.2 35.8 80 80 80s80-35.8 80-80l0-176c0-26.5 21.5-48 48-48l48 0c26.5 0 48 21.5 48 48l0 176c0 123.7-100.3 224-224 224S0 379.7 0 256L0 80z"/></svg>

<svg xmlns="http://www.w3.org/2000/svg" viewBox="0 0 448 512"><!--! Font Awesome Pro 6.4.2 by @fontawesome - https://fontawesome.com License - https://fontawesome.com/license (Commercial License) Copyright 2023 Fonticons, Inc. --><path d="M48 64c-8.8 0-16 7.2-16 16v48h80V80c0-8.8-7.2-16-16-16H48zM32 256c0 106 86 192 192 192s192-86 192-192V160H336v96c0 61.9-50.1 112-112 112s-112-50.1-112-112V160H32v96zM416 128V80c0-8.8-7.2-16-16-16H352c-8.8 0-16 7.2-16 16v48h80zM0 80C0 53.5 21.5 32 48 32H96c26.5 0 48 21.5 48 48V256c0 44.2 35.8 80 80 80s80-35.8 80-80V80c0-26.5 21.5-48 48-48h48c26.5 0 48 21.5 48 48V256c0 123.7-100.3 224-224 224S0 379.7 0 256V80z"/></svg>
